X:143
T:Puncheon Floor
S:Jim Coon to CoMandoList TOW
R:reel
M:2/4
L:1/8
Q:1/4=120
K:G
D|:"G"GA Bc|dg dB/c/|\
dg dg|"D7"d g/g/ BA|!
"G"GA Bc|dg dB/c/|
"Am"dd "D7"c/B/A|1"G"G3 D:|2"G"G3||!
K:D
|:f/g/|"D"af "A7"g/f/e|"D"fd "A7"e2|\
"D"fd "A7"e2|"D"fd "A7"ef/g/|!
"D"af "A7"g/f/e|"D"fd "A7"e2|\
"D"fd "A7"e/d/c|1"D"d3:|2"D"d=c BA|
